dataset/zen-twilight/icon.svg

<?xml version="1.0" encoding="UTF-8" standalone="no"?>
<svg
   viewBox="0 0 128 128"
   style="display:inline;enable-background:new"
   version="1.0"
   id="svg11300"
   height="128"
   width="128"
   xml:space="preserve"
   xmlns:xlink="http://www.w3.org/1999/xlink"
   xmlns="http://www.w3.org/2000/svg"
   xmlns:svg="http://www.w3.org/2000/svg"
   xmlns:rdf="http://www.w3.org/1999/02/22-rdf-syntax-ns#"
   xmlns:cc="http://creativecommons.org/ns#"
   xmlns:dc="http://purl.org/dc/elements/1.1/"><title
     id="title4162">Adwaita Icon Template</title><defs
     id="defs3"><linearGradient
       y2="44"
       x2="464"
       y1="44"
       x1="48"
       gradientTransform="matrix(0.25,0,0,0.25,0,53)"
       gradientUnits="userSpaceOnUse"
       id="linearGradient1747"
       xlink:href="#linearGradient974-3" /><linearGradient
       id="linearGradient974-3"><stop
         style="stop-color:#0a3edb;stop-opacity:1;"
         offset="0"
         id="stop962-2" /><stop
         id="stop964-9"
         offset="0.04166667"
         style="stop-color:#85a2f9;stop-opacity:1;" /><stop
         style="stop-color:#0a3edb;stop-opacity:1;"
         offset="0.08333334"
         id="stop966-5" /><stop
         id="stop968-4"
         offset="0.91666669"
         style="stop-color:#0a3edb;stop-opacity:1;" /><stop
         style="stop-color:#85a2f9;stop-opacity:1;"
         offset="0.95833331"
         id="stop970-6" /><stop
         style="stop-color:#0a3edb;stop-opacity:1;"
         offset="1"
         id="stop972-6" /></linearGradient></defs><metadata
     id="metadata4"><rdf:RDF><cc:Work
         rdf:about=""><dc:format>image/svg+xml</dc:format><dc:type
           rdf:resource="http://purl.org/dc/dcmitype/StillImage" /><dc:creator><cc:Agent><dc:title>GNOME Design Team</dc:title></cc:Agent></dc:creator><dc:source /><cc:license
           rdf:resource="http://creativecommons.org/licenses/by-sa/4.0/" /><dc:title>Adwaita Icon Template</dc:title><dc:subject><rdf:Bag /></dc:subject><dc:date /><dc:rights><cc:Agent><dc:title /></cc:Agent></dc:rights><dc:publisher><cc:Agent><dc:title /></cc:Agent></dc:publisher><dc:identifier /><dc:relation /><dc:language /><dc:coverage /><dc:description /><dc:contributor><cc:Agent><dc:title /></cc:Agent></dc:contributor></cc:Work><cc:License
         rdf:about="http://creativecommons.org/licenses/by-sa/4.0/"><cc:permits
           rdf:resource="http://creativecommons.org/ns#Reproduction" /><cc:permits
           rdf:resource="http://creativecommons.org/ns#Distribution" /><cc:requires
           rdf:resource="http://creativecommons.org/ns#Notice" /><cc:requires
           rdf:resource="http://creativecommons.org/ns#Attribution" /><cc:permits
           rdf:resource="http://creativecommons.org/ns#DerivativeWorks" /><cc:requires
           rdf:resource="http://creativecommons.org/ns#ShareAlike" /></cc:License></rdf:RDF></metadata><rect
     ry="8"
     rx="8"
     y="32"
     x="12"
     height="83.999992"
     width="104"
     id="rect1709"
     style="display:inline;fill:url(#linearGradient1747);fill-opacity:1;stroke:none;stroke-width:0.25;stroke-linecap:butt;stroke-linejoin:miter;stroke-miterlimit:4;stroke-dasharray:none;stroke-dashoffset:0;stroke-opacity:1;marker:none;marker-start:none;marker-mid:none;marker-end:none;paint-order:normal;enable-background:new" /><rect
     style="display:inline;fill:#537cf7;fill-opacity:1;stroke:none;stroke-width:0.25;stroke-linecap:butt;stroke-linejoin:miter;stroke-miterlimit:4;stroke-dasharray:none;stroke-dashoffset:0;stroke-opacity:1;marker:none;marker-start:none;marker-mid:none;marker-end:none;paint-order:normal;enable-background:new"
     id="rect1711"
     width="104"
     height="100"
     x="12"
     y="12"
     rx="8"
     ry="8" /><path
     id="path4"
     style="fill:#f1eee2;stroke-width:4.32528"
     d="M 64,47.5 A 14.5,14.5 0 0 0 49.5,62 14.5,14.5 0 0 0 64,76.5 14.5,14.5 0 0 0 78.5,62 14.5,14.5 0 0 0 64,47.5 Z M 64,50 A 12,12 0 0 1 76,62 12,12 0 0 1 64,74 12,12 0 0 1 52,62 12,12 0 0 1 64,50 Z M 64,36.5 A 25.500002,25.500002 0 0 0 38.5,62 25.500002,25.500002 0 0 0 64,87.5 25.500002,25.500002 0 0 0 89.5,62 25.500002,25.500002 0 0 0 64,36.5 Z M 64,41 A 21.000002,21.000002 0 0 1 85,62 21.000002,21.000002 0 0 1 64,83 21.000002,21.000002 0 0 1 43,62 21.000002,21.000002 0 0 1 64,41 Z M 64,23.5 A 38.500006,38.500006 0 0 0 25.5,62 38.500006,38.500006 0 0 0 64,100.5 38.500006,38.500006 0 0 0 102.5,62 38.500006,38.500006 0 0 0 64,23.5 Z m 0,7 A 31.500006,31.500006 0 0 1 95.5,62 31.500006,31.500006 0 0 1 64,93.5 31.500006,31.500006 0 0 1 32.5,62 31.500006,31.500006 0 0 1 64,30.5 Z" /></svg>

<svg xmlns="http://www.w3.org/2000/svg" xmlns:xlink="http://www.w3.org/1999/xlink" xml:space="preserve" width="128" height="128" style="display:inline" viewBox="0 0 128 128"><title>Adwaita Icon Template</title><defs><linearGradient xlink:href="#a" id="b" x1="48" x2="464" y1="44" y2="44" gradientTransform="matrix(.25 0 0 .25 0 53)" gradientUnits="userSpaceOnUse"/><linearGradient id="a"><stop offset="0" style="stop-color:#0a3edb;stop-opacity:1"/><stop offset=".042" style="stop-color:#85a2f9;stop-opacity:1"/><stop offset=".083" style="stop-color:#0a3edb;stop-opacity:1"/><stop offset=".917" style="stop-color:#0a3edb;stop-opacity:1"/><stop offset=".958" style="stop-color:#85a2f9;stop-opacity:1"/><stop offset="1" style="stop-color:#0a3edb;stop-opacity:1"/></linearGradient></defs><rect width="104" height="84" x="12" y="32" rx="8" ry="8" style="display:inline;fill:url(#b);fill-opacity:1;stroke:none;stroke-width:.25;stroke-linecap:butt;stroke-linejoin:miter;stroke-miterlimit:4;stroke-dasharray:none;stroke-dashoffset:0;stroke-opacity:1;marker:none;marker-start:none;marker-mid:none;marker-end:none;paint-order:normal"/><rect width="104" height="100" x="12" y="12" rx="8" ry="8" style="display:inline;fill:#537cf7;fill-opacity:1;stroke:none;stroke-width:.25;stroke-linecap:butt;stroke-linejoin:miter;stroke-miterlimit:4;stroke-dasharray:none;stroke-dashoffset:0;stroke-opacity:1;marker:none;marker-start:none;marker-mid:none;marker-end:none;paint-order:normal"/><path d="M64 47.5A14.5 14.5 0 0 0 49.5 62 14.5 14.5 0 0 0 64 76.5 14.5 14.5 0 0 0 78.5 62 14.5 14.5 0 0 0 64 47.5m0 2.5a12 12 0 0 1 12 12 12 12 0 0 1-12 12 12 12 0 0 1-12-12 12 12 0 0 1 12-12m0-13.5A25.5 25.5 0 0 0 38.5 62 25.5 25.5 0 0 0 64 87.5 25.5 25.5 0 0 0 89.5 62 25.5 25.5 0 0 0 64 36.5m0 4.5a21 21 0 0 1 21 21 21 21 0 0 1-21 21 21 21 0 0 1-21-21 21 21 0 0 1 21-21m0-17.5A38.5 38.5 0 0 0 25.5 62 38.5 38.5 0 0 0 64 100.5 38.5 38.5 0 0 0 102.5 62 38.5 38.5 0 0 0 64 23.5m0 7A31.5 31.5 0 0 1 95.5 62 31.5 31.5 0 0 1 64 93.5 31.5 31.5 0 0 1 32.5 62 31.5 31.5 0 0 1 64 30.5" style="fill:#f1eee2;stroke-width:4.32528"/></svg>
